!!!OTL: ZIEHT IHR KRIEGER ZIEHT VON DANNEN
!!!ARE: Europa, Mitteleuropa, Deutschland
!!!SCT: F0630
!!!YEM: Copyright 1995, estate of Helmut Schaffrath.
**kern
*ICvox
*Ivox
*M4/4
*k[b-e-]
*B-:
{8.f
16f
=1
4.b-
8b-
4.cc
8cc
=2
4dd
4cc
4r}
{8cc
8dd
=3
4.ee-
8dd
4cc
4b-
=4
4dd
4cc
4r}
{8cc
8cc
=5
4.cc
8cc
4cc
4b-
=6
2a}
{4.dd
8dd
=7
4cc
8dd
8b-
4a
4g
=8
2a}
{12dd
12cc
12b-
12ff
12ee-
12dd
=9
4cc
12ff
12dd
12b-
4a
4g
=10
2f
4r}
{8cc
8dd
=11
4.ee-
8cc
4.ee-
8dd
=12
8dd
8cc
4cc
4r}
{8cc
8cc
=13
4dd
4ff
4ee-
4dd
=14
4dd
4cc
4r}
{8f
8f
=15
4.b-
8b-
4.cc
8cc
=16
2dd}
{12ee-
12dd
12cc
12gg
12ee-
12cc
=17
4.b-
8b-
4.a
8a
=18
2b-
4r}
{8f
8f
=19
4.b-
8b-
4.cc
8cc
=20
2dd}
{12ee-
12dd
12cc
12gg
12ee-
12cc
=21
4.b-
8b-
4.a
8a
=22
2b-
4r}
==
!!!AGN: Soldaten -, Helden - Lied
!!!ONB: ESAC (Essen Associative Code) Database: FINK
!!!AMT: simple quadruple
!!!AIN: vox
!!!EED: Helmut Schaffrath
!!!EEV: 1.0
*-
